public/Group 19.svg

<svg width="253" height="213" viewBox="0 0 253 213" fill="none" xmlns="http://www.w3.org/2000/svg">
<path d="M148.857 0.291952C158.555 -0.509063 169.399 0.651304 179.283 0.113727C190.607 -0.502058 196.056 12.5998 188.697 20.5264C184.434 25.1185 176.536 24.145 170.715 24.0384C170.966 28.2451 170.868 32.936 170.861 37.1913C185.079 37.7104 200.19 42.7338 212.088 50.4933C232.096 63.3321 246.066 83.7115 250.825 107.003C260.869 155.529 228.29 201.232 180.352 211.041C178.156 211.679 169.782 212.362 167.319 212.403C144.767 212.835 122.974 204.257 106.764 188.574C89.6085 172.064 79.7451 149.396 79.3614 125.592C78.856 82.645 110.457 43.4093 153.56 37.6009C156.141 37.253 158.454 37.1181 161.067 37.0929C160.867 33.7275 160.805 27.5215 161.222 24.2705C157.342 24.3479 150.775 24.5422 147.373 23.0097C136.944 18.3111 138.652 4.26121 148.857 0.291952ZM170.562 201.578C213.016 198.997 245.401 162.593 243.023 120.13C240.645 77.6664 204.398 45.1072 161.921 47.2801C119.154 49.4679 86.3215 86.0149 88.7156 128.77C91.1101 171.525 127.818 204.179 170.562 201.578ZM178.318 15.403C181.058 15.4717 182.682 15.0128 183.302 11.9639C182.251 7.767 173.291 8.908 169.699 8.87301C164.642 8.8232 159.342 8.90802 154.284 9.07596C152.669 9.11383 151.227 8.94834 149.906 9.76459C149.238 10.6422 148.885 11.1666 148.995 12.3529C149.086 13.3408 149.607 14.2385 150.42 14.8061C152.193 16.0566 174.464 15.4161 178.318 15.403Z" fill="#FD6610"/>
<path d="M165.228 75.0498C166.727 75.1716 168.686 75.8171 169.667 77.0211C171.976 79.8551 171.021 109.609 170.566 114.866C173.384 112.046 194.55 89.9089 197.372 90.2094C209.495 91.506 197.617 101.747 194.001 105.172C187.713 111.05 179.721 118.158 174.117 124.687C173.56 125.333 172.572 128.173 172.247 129.116C170.066 130.956 168.594 131.586 165.981 132.635C163.374 131.725 161.047 130.849 159.442 128.251C156.507 123.497 160.778 120.834 160.892 117.195C161.288 104.526 159.812 90.5222 161.51 78.0357C161.687 76.7338 164.062 75.6557 165.228 75.0498Z" fill="#FD6610"/>
<path d="M3.51151 117.245C9.47332 116.928 54.4922 116.475 57.5186 117.397C58.9737 117.837 60.4845 118.685 61.1871 120.093C61.7301 121.184 61.6651 122.744 61.2201 123.855C60.5833 125.448 58.9663 126.066 57.5099 126.7L23.272 126.815C18.7217 126.852 14.1426 126.897 9.61822 126.938C5.84469 126.971 -0.858911 127.07 0.0911601 121.497C0.489218 119.159 1.69946 118.414 3.51151 117.245Z" fill="#FD6610"/>
<path d="M17.982 156.348C25.8896 156.163 65.8009 155.225 70.4989 157.18C71.3473 157.534 71.9121 158.386 72.2258 159.217C72.7724 160.67 72.7589 162.407 71.9738 163.774C71.1012 165.293 69.4954 165.581 67.9303 165.952C61.8096 166.26 20.3251 166.767 16.5931 165.532C15.3026 165.108 14.2587 164.07 13.7248 162.827C13.2069 161.621 13.2218 160.292 13.7993 159.11C14.6357 157.402 16.3231 156.941 17.982 156.348Z" fill="#FD6610"/>
<path d="M63.1965 76.9981C72.7865 75.8863 77.5265 85.5376 67.033 87.003C63.5406 87.4928 57.5784 87.1594 53.8493 87.1512C45.3229 87.1182 36.7966 87.1306 28.2707 87.1923C24.2864 87.217 18.4542 87.217 18.1961 82.0804C17.8841 75.8736 28.6016 77.1525 32.0553 77.1031C42.4633 76.9541 52.8683 77.3727 63.1965 76.9981Z" fill="#FD6610"/>
</svg>

<svg xmlns="http://www.w3.org/2000/svg" width="253" height="213" fill="none" viewBox="0 0 253 213"><path fill="#fd6610" d="M148.86.3c9.7-.8 20.54.35 30.42-.19 11.33-.61 16.78 12.49 9.42 20.42-4.27 4.59-12.16 3.61-17.98 3.5.25 4.22.15 8.9.14 13.16 14.22.52 29.33 5.54 41.23 13.3A88 88 0 0 1 250.82 107c10.05 48.53-22.53 94.23-70.47 104.04-2.2.64-10.57 1.32-13.03 1.36a84.8 84.8 0 0 1-60.56-23.83 89.4 89.4 0 0 1-27.4-62.98c-.5-42.95 31.1-82.18 74.2-87.99 2.58-.35 4.9-.48 7.5-.5-.2-3.37-.25-9.58.16-12.83-3.88.08-10.44.27-13.85-1.26-10.43-4.7-8.72-18.75 1.49-22.72m21.7 201.28a77.27 77.27 0 0 0-8.64-154.3 77.27 77.27 0 1 0 8.64 154.3m7.76-186.18c2.74.07 4.36-.39 4.98-3.44-1.05-4.2-10-3.05-13.6-3.09-5.06-.05-10.36.04-15.42.2-1.61.04-3.05-.12-4.37.7-.67.87-1.03 1.4-.91 2.58.09 1 .6 1.89 1.42 2.46 1.77 1.25 24.04.6 27.9.6"/><path fill="#fd6610" d="M165.23 75.05c1.5.12 3.46.77 4.44 1.97 2.3 2.84 1.35 32.59.9 37.85 2.81-2.82 23.98-24.96 26.8-24.66 12.13 1.3.25 11.54-3.37 14.96-6.29 5.88-14.28 12.99-19.88 19.52-.56.64-1.55 3.48-1.87 4.43-2.18 1.84-3.66 2.47-6.27 3.51-2.6-.9-4.93-1.78-6.54-4.38-2.93-4.75 1.34-7.42 1.45-11.06.4-12.66-1.08-26.67.62-39.15.18-1.3 2.55-2.38 3.72-2.99M3.51 117.25c5.96-.32 50.98-.78 54 .15 1.46.44 2.97 1.28 3.68 2.7.54 1.08.48 2.64.03 3.76-.64 1.59-2.25 2.2-3.71 2.84l-34.24.11-13.65.13c-3.78.03-10.48.13-9.53-5.44.4-2.34 1.6-3.09 3.42-4.25m14.47 39.1c7.91-.19 47.82-1.12 52.52.83.85.35 1.41 1.2 1.73 2.04a5.5 5.5 0 0 1-.26 4.55c-.87 1.52-2.47 1.81-4.04 2.18-6.12.31-47.6.82-51.34-.42a5 5 0 0 1-2.87-2.7c-.51-1.2-.5-2.54.08-3.72.84-1.7 2.52-2.17 4.18-2.76M63.2 77c9.59-1.11 14.33 8.54 3.83 10-3.49.5-9.45.16-13.18.15q-12.79-.05-25.58.04c-3.98.03-9.82.03-10.07-5.11-.32-6.2 10.4-4.93 13.86-4.98 10.4-.15 20.8.27 31.14-.1"/></svg>
